img/waste.svg

<svg id="Layer_1" data-name="Layer 1" xmlns="http://www.w3.org/2000/svg" viewBox="0 0 391.56 82.68">
  <defs>
    <style>
      .cls-1 {
        isolation: isolate;
      }

      .cls-2 {
        fill: #db9466;
      }
    </style>
  </defs>
  <title>Artboard 21</title>
  <g id="WASTE" class="cls-1">
    <g class="cls-1">
      <path class="cls-2" d="M55,26.28,41,81.24H22.92L0,1.2H19.08L33.12,59,48.36,1.2H61.68L76.8,59,90.72,1.2h19.2l-22.8,80H69Z"/>
      <path class="cls-2" d="M163.68,67.44H127.92l-5,13.8H104.16l31-80h21.36l30.84,80h-18.6Zm-31.2-14.76H159L145.8,16Z"/>
      <path class="cls-2" d="M197.76,57A35.09,35.09,0,0,0,223.2,67.8c9.36,0,13.92-4.44,13.92-9,0-6-7-8-16.2-10.2C207.84,45.6,191,42,191,24.12,191,10.8,202.56,0,221.4,0c12.72,0,23.28,3.84,31.2,11.16l-9.48,12.48a34.15,34.15,0,0,0-22.92-8.76c-7.68,0-11.76,3.36-11.76,8.16,0,5.4,6.72,7.08,16,9.24,13.2,3,30,7,30,24.72,0,14.64-10.44,25.68-32,25.68-15.36,0-26.4-5.16-34-12.72Z"/>
      <path class="cls-2" d="M283.56,16.2h-23.4V1.2H324v15H300.72v65H283.56Z"/>
      <path class="cls-2" d="M334.92,1.2h56.64V15.84H352v17.4h38.76V47.88H352v18.6h39.6V81.24H334.92Z"/>
    </g>
  </g>
</svg>

<?xml version="1.0" encoding="utf-8"?>
<!-- Generator: Adobe Illustrator 24.0.3, SVG Export Plug-In . SVG Version: 6.00 Build 0)  -->
<svg version="1.1" id="Layer_1" xmlns="http://www.w3.org/2000/svg" xmlns:xlink="http://www.w3.org/1999/xlink" x="0px" y="0px"
	 viewBox="0 0 391.6 82.7" style="enable-background:new 0 0 391.6 82.7;" xml:space="preserve">
<style type="text/css">
	.st0{fill:#191919;}
</style>
<title>Artboard 21</title>
<g id="WASTE">
	<g>
		<path class="st0" d="M55,26.3l-14,55H22.9L0,1.2h19.1l14,57.8L48.4,1.2h13.3L76.8,59L90.7,1.2h19.2l-22.8,80H69L55,26.3z"/>
		<path class="st0" d="M163.7,67.4h-35.8l-5,13.8h-18.8l31-80h21.4l30.8,80h-18.6L163.7,67.4z M132.5,52.7H159L145.8,16L132.5,52.7z
			"/>
		<path class="st0" d="M197.8,57c6.6,6.9,15.8,10.8,25.4,10.8c9.4,0,13.9-4.4,13.9-9c0-6-7-8-16.2-10.2c-13.1-3-29.9-6.6-29.9-24.5
			C191,10.8,202.6,0,221.4,0c12.7,0,23.3,3.8,31.2,11.2l-9.5,12.5c-6.3-5.7-14.5-8.8-22.9-8.8c-7.7,0-11.8,3.4-11.8,8.2
			c0,5.4,6.7,7.1,16,9.2c13.2,3,30,7,30,24.7c0,14.6-10.4,25.7-32,25.7c-15.4,0-26.4-5.2-34-12.7L197.8,57z"/>
		<path class="st0" d="M283.6,16.2h-23.4v-15H324v15h-23.3v65h-17.2V16.2z"/>
		<path class="st0" d="M334.9,1.2h56.6v14.6H352v17.4h38.8v14.6H352v18.6h39.6v14.8h-56.7V1.2z"/>
	</g>
</g>
</svg>
